X: 45
T: The Morning Dew
M:C|
L:1/8
R:reel
K:Edor
"Em"~E3B "(D6)"BAFA|"Em"EBEB "D"AGFD|"Em"~E3B "(D6)"BAFA|"G"BcdB "D"AGFD|
"Em"~E3B "(D6)"BAFA|"Em"EBEB "D"AGFD|"Em"~E3B "(D6)"BAFA|"G"BcdB "D"ADFA||
"Em"B2eB fBeB|B2dB "D"ADFA|"Em"B2eB fBeB|"G"dedB "D"ADFA|
"Em"B2eB fBeB|B2dB "D"ADFA|"Em"(3Bcd ef gfge|"G"dcdB "D"ADFA||
"Em"BAGF EFGA|BEGB "D"ADFA|"Em"BAGF EFGA|"G"BcdB "D"ADFA|
"Em"BAGF EFGA|B2EB "D"ADFA|"Em"BAGF EFGA|"G"BcdB "D"AGFD||


